X:1
T:Ach Gott und Herr, 87.87
T:Ach Gott und Herr, 87.87
T:As Hymnodus Sacer (Leipzig, German
T:Public Domain Courtesy of the Cyber Hymnal™
C:As Hymnodus Sacer (Leipzig, German
Z:Public Domain
Z:Courtesy of the Cyber Hymnal™
%%score ( 1 2 ) ( 3 4 )
L:1/8
Q:1/4=105
M:4/4
K:A
V:1 treble 
V:2 treble 
V:3 bass 
V:4 bass 
V:1
 [EA]2 | [EG]2 [^DF]2 [B,E]2 E2 | [DF]2 [DG]2 [EA]2 [EB]2 | A2 [EG]2 [=DF]2 (GA) | %4
 F4 !fermata![B,E]2 [EA]2 | [DG]2 [CA]2 [EB]2 [EB]2 x | [Ec]2 (BA) [EB]2 E2 | %7
 [DF]2 [DG]2 ([CA][DB]) ([Ec][Fd]) | B4 !fermata![CA]2 |] %9
V:2
 x2 | x6 E2 | x8 | (E^D) x3 E2 x | (E2 ^D2) x4 | x9 | x2 ^D2 x E2 x | x8 | (E3 D) x2 |] %9
V:3
 [A,,C]2 | [E,B,]2 (B,A,) [E,G,]2 [C,A,]2 | A,2 [B,,B,]2 [A,,C]2 [G,,B,]2 | %3
 [F,,A,]2 B,2 [B,,B,]2 [E,B,]2 | ([A,,C]2 B,A,) !fermata![E,G,]2 [C,A,]2 | %5
 E,3 z F, [E,G,]2 [G,B,]2 | A,2 [F,A,]2 [E,G,]2 [C,A,]2 | [D,A,]2 [B,,B,]2 [F,A,]2 A,2 | %8
 ([E,A,]2 [E,,G,]2) !fermata![A,,A,]2 |] %9
V:4
 x2 | x2 B,,2 x4 | (D,C,) x6 | x2 (G,,A,,) x4 | x2 B,,2 x4 | B,,2 A,,2 x5 | A,2 x6 | x6 (E,D,) | %8
 x6 |] %9

